!!!!SEGMENT: pl-sa--552-a-ix-32--005_anonim--exessaisse.krn
!!!cenid: 18xx:516
!!!COM: Anonim
!!!COM-rismID: pe30004985
!!!CDT:
!!!CNT:
!!!OTL: Exessaisse
!!!PDT:
!!!AGN: Secular
!!!SMS-siglum: PL-SA
!!!SMS-shelfmark: 552/A IX 32
!!!SMS-shelfwork: 005 W
!!!SMS-variant:
!!!SMS-altvar:
!!!NIFC-rismSourceID: 1001069495
!!!NIFC-islandoraID:
!!!URL-pdf-islandora:
!!!URL-scan: https://bc.bdsandomierz.pl/dlibra/publication/1308/edition/1276/content @EN{Scan on Cyfrowa Biblioteka Diecezjalna w Sandomierzu} @PL{Skany w portalu Cyfrowa Biblioteka Diecezjalna w Sandomierzu}
!!!ONB-nifc: Str. 4 , s. 3
!!!AIN: 1 empty 1 piano
!!!key:
**kern	**kern
*part2	*part1
*staff2	*staff1
*Iempty	*Ipiano
*	*I"Piano
*clefF4	*clefG2
*k[]	*k[]
*C:	*C:
*M2/4	*M2/4
*>[A,A,B,B]	*>[A,A,B,B]
=1	=1
*>A	*>A
*	*2\right
!	!LO:TX:a:Bi:t=Exeſsaisse
4C 4CC/	4cc\
4e 4c 4G\	8ccc\L
.	8bb\J
=2	=2
4e 4c 4G\	8ccc\L
.	8bb\
4e 4c 4G\	8aa\
.	8gg\J
=3	=3
4c 4C\	8ff#X\L
.	8gg\
4e 4c\	8aa\
.	8gg\J
=4	=4
4e 4c 4G\	4ee\
4e 4c 4G\	4cc\
=5	=5
4G 4GG/	4g\
4d 4B 4G\	8ff\L
.	8ee\J
=6	=6
4d 4B 4G\	8ff\L
.	8dd\
*rep	*
4d 4B 4G\	8b\
.	8g\J
*Xrep	*
=7	=7
*rep	*
4d 4B 4G\	8f#X\L
.	8g\
4d 4B 4G\	8a\
.	8b\J
*Xrep	*
=8	=8
4e 4c 4G\	4cc\
4r	4r
=9:|!|:	=9:|!|:
*>B	*>B
8C\L	4gg\
8G\	.
.	8qddd/
8E\	8ccc\L
8G\J	8ccc\J
=10	=10
*rep	*
8C\L	4ccc\
8G\	.
8E\	4ddd\
8G\J	.
*Xrep	*
=11	=11
*rep	*
!	!LO:SIC:n=2:s=2ccc:v
!	!LO:SIC:n=1:s=2eee:v
8C\L	2ccc 2aa 2gg\
8G\	.
8E\	.
8G\J	.
*Xrep	*
=12	=12
*rep	*
8C\L	8ee\L
8G\	8gg\
8E\	8ccc\
8G\J	8gg\J
*Xrep	*
=13	=13
*rep	*
8C\L	8eee\L
8G\	8ddd\
8E\	8ccc\
8G\J	8bb\J
*Xrep	*
=14	=14
*rep	*
8C\L	8ccc\L
8G\	8bb\
8E\	8aa\
8G\J	8gg\J
*Xrep	*
=15	=15
8D\L	8ff#X\L
8G\	8gg\
8F\	8aa\
8G\J	8bb\J
=16	=16
4G 4E 4C\	4ccc\
4r	4r
==:|!	==:|!
*-	*-
!!!system-decoration: {(s1,s2)}
!!!RDF**kern: > = above
!!!RDF**kern: < = below
!!!EED: Wojciech Jakubiak-Danek
!!!EEV: 2020-12-11
!!!ENC: Marta Chmielewska
!!!END: 2020-06-17
